img/twitter.svg

<svg width="17" height="14" viewBox="0 0 17 14" fill="none" xmlns="http://www.w3.org/2000/svg">
<path d="M14.677 3.48755C15.302 3.0188 15.8645 2.4563 16.302 1.80005C15.7395 2.05005 15.0833 2.23755 14.427 2.30005C15.1145 1.8938 15.6145 1.2688 15.8645 0.487549C15.2395 0.862549 14.5208 1.1438 13.802 1.30005C13.177 0.643799 12.3333 0.268799 11.3958 0.268799C9.58325 0.268799 8.1145 1.73755 8.1145 3.55005C8.1145 3.80005 8.14575 4.05005 8.20825 4.30005C5.4895 4.1438 3.052 2.8313 1.427 0.862549C1.14575 1.3313 0.989502 1.8938 0.989502 2.5188C0.989502 3.6438 1.552 4.6438 2.45825 5.23755C1.927 5.2063 1.39575 5.0813 0.958252 4.8313V4.86255C0.958252 6.4563 2.08325 7.7688 3.58325 8.0813C3.33325 8.1438 3.02075 8.2063 2.7395 8.2063C2.52075 8.2063 2.33325 8.17505 2.1145 8.1438C2.52075 9.4563 3.7395 10.3938 5.177 10.425C4.052 11.3 2.64575 11.8313 1.1145 11.8313C0.833252 11.8313 0.583252 11.8 0.333252 11.7688C1.77075 12.7063 3.4895 13.2375 5.3645 13.2375C11.3958 13.2375 14.677 8.2688 14.677 3.92505C14.677 3.7688 14.677 3.6438 14.677 3.48755Z" fill="#5A7184"/>
</svg>

<svg width="17" height="14" fill="none" xmlns="http://www.w3.org/2000/svg"><path d="M14.677 3.488A6.95 6.95 0 0016.302 1.8a6.15 6.15 0 01-1.875.5A3.206 3.206 0 0015.865.488a6.93 6.93 0 01-2.063.812A3.281 3.281 0 0011.396.269 3.28 3.28 0 008.114 3.55c0 .25.032.5.094.75A9.52 9.52 0 011.427.863 3.192 3.192 0 00.99 2.519c0 1.125.562 2.125 1.468 2.719-.531-.032-1.062-.157-1.5-.407v.032A3.285 3.285 0 003.583 8.08c-.25.063-.562.125-.844.125-.218 0-.406-.03-.624-.062a3.265 3.265 0 003.062 2.281 6.597 6.597 0 01-4.063 1.406c-.28 0-.53-.031-.78-.062 1.437.937 3.155 1.469 5.03 1.469 6.032 0 9.313-4.97 9.313-9.313v-.437z" fill="#5A7184"/></svg>
